packages/ffe-icons/icons/filled/md/shopping_bag.svg

<svg xmlns="http://www.w3.org/2000/svg" height="24" viewBox="0 -960 960 960" width="24"><path d="M252.309-100.001q-30.308 0-51.308-21t-21-51.308v-455.382q0-30.308 21-51.308t51.308-21h77.692v-10q0-62.154 43.923-106.077Q417.846-859.999 480-859.999q62.154 0 106.076 43.923 43.923 43.923 43.923 106.077v10h77.692q30.308 0 51.308 21t21 51.308v455.382q0 30.308-21 51.308t-51.308 21H252.309Zm137.69-599.998h180.002v-10q0-37.616-26.193-63.808Q517.616-800 480-800t-63.808 26.193q-26.193 26.192-26.193 63.808v10ZM600-520q12.769 0 21.384-8.615t8.615-21.384V-640h-59.998v90.001q0 12.769 8.615 21.384T600-520Zm-240 0q12.769 0 21.384-8.615t8.615-21.384V-640h-59.998v90.001q0 12.769 8.615 21.384T360-520Z"/></svg>

<svg xmlns="http://www.w3.org/2000/svg" height="24" viewBox="0 -960 960 960" width="24"><path d="M252.31-100Q222-100 201-121q-21-21-21-51.31v-455.38Q180-658 201-679q21-21 51.31-21H330v-10q0-62.15 43.92-106.08Q417.85-860 480-860t106.08 43.92Q630-772.15 630-710v10h77.69Q738-700 759-679q21 21 21 51.31v455.38Q780-142 759-121q-21 21-51.31 21H252.31ZM390-700h180v-10q0-37.61-26.19-63.81Q517.62-800 480-800q-37.62 0-63.81 26.19Q390-747.61 390-710v10Zm210 180q12.77 0 21.38-8.62Q630-537.23 630-550v-90h-60v90q0 12.77 8.62 21.38Q587.23-520 600-520Zm-240 0q12.77 0 21.38-8.62Q390-537.23 390-550v-90h-60v90q0 12.77 8.62 21.38Q347.23-520 360-520Z"/></svg>
